X:5
T:Gaudete
R:Air
C:Trad. - Piae Cantiones, 1582
O:Sweden
Z:Paul Hardy's Xmas Tunebook 2019 (see www.paulhardy.net). Creative Commons cc by-nc-sa licenced.
M:2/2
L:1/8
Q:1/2=110
K:Dmaj
"Bm"B4 B4|"A"A4 B2 c2|"Bm"d4 d2 c2-|"A"c2 B2 A4|A4 A4|"Bm"B4 "A"c4-|[M:6/4]c2 B2 A4 B2 c2-|[M:2/2]c2 B2 A4|"Bm"B4 B4|
"Bm"B2 B2 A2 B2|d2 c2 B4|"Em"B2 G2 F2 G2|E4 E4|E2 E2 G2 E2|G2 A2 B4|"Bm"d2 B2 "A"c2 d2|"Bm"B4 B4|]
W:Gaudete! Gaudete!
W:Christus est natus ex Maria virgine. Gaudete!
W:
W:Tempus adest gratiae, hoc quod optabamus;
W:Carmina laetitiae devote reddamus.
